public/cloud-icons/azure/networking/expressroute-connection.svg

<svg xmlns="http://www.w3.org/2000/svg" xml:space="preserve" width="75.586" height="75.586" style="font-size:12px;overflow:visible;color-interpolation-filters:sRGB;fill-rule:evenodd;stroke-linecap:square;stroke-miterlimit:3" viewBox="0 0 56.69 56.69"><g transform="translate(-5.67 -5.674)"><title>Page-1</title><g transform="translate(5.67 -34.016)"><title>ExpressRoute Connection.19242</title><title>g8</title><g transform="translate(13.833 -11.112)"><title>path4</title><path d="m29.03 65.65-3.74-3.74-12.14 12.24L25.29 86.4l3.74-3.51-8.28-8.4ZM0 75.97l8.28 8.28L0 92.64l3.74 3.74 12.13-12.25L3.74 71.89Z" style="fill:#b8d432;stroke:none;stroke-width:.93830502;stroke-linecap:butt"/></g><title>path6</title><path d="M28.35 39.69C12.59 39.69 0 52.61 0 68.03c0 15.76 12.93 28.35 28.35 28.35s28.34-12.93 28.34-28.35-12.58-28.34-28.34-28.34m0 3.74c13.6 0 24.6 11 24.6 24.6 0 13.61-11.11 24.61-24.6 24.61-13.5 0-24.61-11.12-24.61-24.61s11-24.6 24.61-24.6" style="fill:#59b4d9;stroke:none;stroke-width:.93830502;stroke-linecap:butt"/></g></g></svg>

<?xml version="1.0" encoding="UTF-8" standalone="no"?>
<!-- Generated by Microsoft Visio, SVG Export ExpressRoute Connection.svg Page-1 -->

<svg
   xmlns:dc="http://purl.org/dc/elements/1.1/"
   xmlns:cc="http://creativecommons.org/ns#"
   xmlns:rdf="http://www.w3.org/1999/02/22-rdf-syntax-ns#"
   xmlns:svg="http://www.w3.org/2000/svg"
   xmlns="http://www.w3.org/2000/svg"
   xmlns:sodipodi="http://sodipodi.sourceforge.net/DTD/sodipodi-0.dtd"
   xmlns:inkscape="http://www.inkscape.org/namespaces/inkscape"
   width="0.78735912in"
   height="0.78735912in"
   viewBox="0 0 56.689855 56.689997"
   xml:space="preserve"
   class="st3"
   version="1.1"
   id="svg24"
   sodipodi:docname="ExpressRoute Connection.svg"
   style="font-size:12px;overflow:visible;color-interpolation-filters:sRGB;fill:none;fill-rule:evenodd;stroke-linecap:square;stroke-miterlimit:3"
   inkscape:version="0.92.5 (2060ec1f9f, 2020-04-08)"><metadata
   id="metadata30"><rdf:RDF><cc:Work
       rdf:about=""><dc:format>image/svg+xml</dc:format><dc:type
         rdf:resource="http://purl.org/dc/dcmitype/StillImage" /></cc:Work></rdf:RDF></metadata><defs
   id="defs28" /><sodipodi:namedview
   pagecolor="#ffffff"
   bordercolor="#666666"
   borderopacity="1"
   objecttolerance="10"
   gridtolerance="10"
   guidetolerance="10"
   inkscape:pageopacity="0"
   inkscape:pageshadow="2"
   inkscape:window-width="640"
   inkscape:window-height="480"
   id="namedview26"
   showgrid="false"
   inkscape:zoom="1.8365233"
   inkscape:cx="37.795184"
   inkscape:cy="18.900351"
   inkscape:window-x="0"
   inkscape:window-y="0"
   inkscape:window-maximized="0"
   inkscape:current-layer="svg24" />
	<style
   type="text/css"
   id="style2">
	<![CDATA[
		.st1 {fill:#b8d432;stroke:none;stroke-linecap:butt;stroke-width:0.938305}
		.st2 {fill:#59b4d9;stroke:none;stroke-linecap:butt;stroke-width:0.938305}
		.st3 {fill:none;fill-rule:evenodd;font-size:12px;overflow:visible;stroke-linecap:square;stroke-miterlimit:3}
	]]>
	</style>

	<g
   id="g22"
   transform="translate(-5.6693772,-5.6743)">
		<title
   id="title4">Page-1</title>
		<g
   id="group19242-1"
   transform="translate(5.66929,-34.0157)">
			<title
   id="title6">ExpressRoute Connection.19242</title>
			<g
   id="group19243-2">
				<title
   id="title8">g8</title>
				<g
   id="shape19244-3"
   transform="translate(13.8331,-11.1118)">
					<title
   id="title10">path4</title>
					<path
   d="M 29.03,65.65 25.29,61.91 13.15,74.15 25.29,86.4 29.03,82.89 20.75,74.49 Z M 0,75.97 8.28,84.25 0,92.64 3.74,96.38 15.87,84.13 3.74,71.89 Z"
   class="st1"
   id="path12"
   inkscape:connector-curvature="0"
   style="fill:#b8d432;stroke:none;stroke-width:0.93830502;stroke-linecap:butt" />
				</g>
				<g
   id="shape19245-5">
					<title
   id="title15">path6</title>
					<path
   d="M 28.35,39.69 C 12.59,39.69 0,52.61 0,68.03 0,83.79 12.93,96.38 28.35,96.38 43.77,96.38 56.69,83.45 56.69,68.03 56.69,52.61 44.11,39.69 28.35,39.69 Z m 0,3.74 c 13.6,0 24.6,11 24.6,24.6 0,13.61 -11.11,24.61 -24.6,24.61 -13.5,0 -24.61,-11.12 -24.61,-24.61 0,-13.49 11,-24.6 24.61,-24.6 z"
   class="st2"
   id="path17"
   inkscape:connector-curvature="0"
   style="fill:#59b4d9;stroke:none;stroke-width:0.93830502;stroke-linecap:butt" />
				</g>
			</g>
		</g>
	</g>
</svg>
